X: 15119
T: Giant Party, The
R: reel
M: 4/4
K: Adorian
|:d|eAAg eAga|[M:10/8]eAGA AEAA GA|[M:4/4]eAAa aegf|egec d/d/dcd|
eAAg eAga|[M:10/8]eAGA AEAA GA|[M:4/4]egae Bcde|1 ABAG A3:|2 ABAG AEA||
|:B|{B}c3d eged|egBc dBAG|AEAB eBde|dece BAGE|
AEAB eBde|agbg dABd|egae Bcde|1 ABAG AEA:|2 ABAG A3||

